epam-assets/icon-sources/18/internal-logo/interview.svg

<svg width="18" height="18" viewBox="0 0 18 18" fill="none" xmlns="http://www.w3.org/2000/svg">
<g id="18/internal-logo/interview">
<path id="icon" fill-rule="evenodd" clip-rule="evenodd" d="M4.63774 3.54586L6.40456 5.32927V5.32495L9.13972 8.10889L9.4847 7.7548C9.96284 7.28047 10.0518 6.54928 9.70087 5.97829L6.04193 2.22147C6.00615 2.17818 5.96659 2.13801 5.9237 2.10143C5.73858 1.94212 5.49636 1.86134 5.25038 1.87689C5.00439 1.89244 4.7748 2.00304 4.61215 2.18434L3.40868 3.39343C3.80077 3.14086 4.32239 3.20556 4.63774 3.54586ZM7.51186 10.3548C7.48052 10.3825 7.45105 10.4122 7.42363 10.4437C7.40774 10.4627 7.3923 10.4817 7.37951 10.5016C7.25634 10.671 7.19061 10.874 7.19158 11.082C7.18125 11.6099 7.60996 12.0462 8.14933 12.0566C8.34411 12.0562 8.53382 11.9958 8.6915 11.8838C8.78784 11.816 8.8708 11.7316 8.93635 11.6347L11.3433 9.18152C11.3862 9.14476 11.4257 9.10446 11.4615 9.06105C11.7867 8.66076 11.7516 8.08491 11.3799 7.72543L11.3883 7.7168L10.1932 6.4995C10.4417 6.90233 10.3798 7.41878 10.0428 7.75436L7.51186 10.3548ZM14.5403 3.33945L13.1313 4.60382C14.107 5.68699 14.6377 7.08589 14.6206 8.52991C14.6166 9.06932 14.5375 9.60568 14.3855 10.1242L14.404 10.1432L14.3855 10.1242C13.7199 12.5262 11.4983 14.1981 8.95576 14.2105C5.78857 14.1227 3.29236 11.5408 3.37736 8.44052C3.38262 6.96706 3.9587 5.5504 4.98934 4.47643L4.61832 4.10204C4.24781 3.68577 3.65068 3.54111 3.12458 3.74018C2.07755 5.0879 1.50736 6.73272 1.50024 8.42584C1.46716 12.6434 4.79876 16.0898 8.94032 16.1247C13.0819 16.1597 16.4655 12.7626 16.4995 8.54502C16.5214 6.63326 15.8241 4.7804 14.5403 3.33945Z" fill="#6C6F80"/>
</g>
</svg>

<svg xmlns="http://www.w3.org/2000/svg" width="18" height="18" fill="none" viewBox="0 0 18 18">
  <path fill="#6C6F80" fill-rule="evenodd" d="m4.638 3.546 1.767 1.783v-.004L9.14 8.109l.345-.354A1.436 1.436 0 0 0 9.7 5.978L6.04 2.221a.942.942 0 0 0-1.43-.037l-1.2 1.21a.967.967 0 0 1 1.229.152Zm2.874 6.809a.959.959 0 0 0-.132.147.979.979 0 0 0-.188.58.966.966 0 0 0 .957.975.94.94 0 0 0 .543-.173.968.968 0 0 0 .244-.25l2.407-2.452a.986.986 0 0 0 .037-1.456l.008-.01L10.193 6.5c.249.402.187.919-.15 1.254l-2.531 2.6Zm7.028-7.016-1.409 1.265a5.762 5.762 0 0 1 1.49 3.926 5.82 5.82 0 0 1-.236 1.594l.019.02-.018-.02c-.666 2.402-2.888 4.074-5.43 4.086-3.167-.087-5.664-2.67-5.579-5.77A5.754 5.754 0 0 1 4.99 4.477l-.37-.374a1.36 1.36 0 0 0-1.494-.362A7.687 7.687 0 0 0 1.5 8.426c-.033 4.217 3.299 7.664 7.44 7.699 4.142.035 7.525-3.362 7.56-7.58a7.69 7.69 0 0 0-1.96-5.206Z" clip-rule="evenodd"/>
</svg>
